assets/images/icon-settings.svg

<svg xmlns="http://www.w3.org/2000/svg" width="48" height="48" viewBox="0 0 48 48">
  <g fill="none" fill-rule="evenodd">
    <path fill="#C0C3C7" d="M36.2425255,8.8211815 L39.5111415,6.27892461 C39.7313711,6.10763486 40.0624627,6.12133721 40.2601955,6.31906999 L41.68093,7.73980451 C41.8743914,7.93326595 41.8937032,8.26690844 41.7210754,8.48885854 L39.1788185,11.7574745 C39.909384,12.6621236 40.5607228,13.6334114 41.1222876,14.6607907 L45.1119881,13.563718 C45.3810035,13.4897452 45.6816486,13.6291077 45.7886608,13.8874581 L46.5575568,15.7437372 C46.6622573,15.9965067 46.5524197,16.3121425 46.3079957,16.4511358 L42.7123616,18.4958174 C43.0369,19.6009185 43.2662039,20.7467595 43.3907802,21.9238475 L47.4987259,22.4373407 C47.7755719,22.4719465 48,22.7157526 48,22.995389 L48,25.004611 C48,25.2782068 47.7777346,25.5277832 47.4987259,25.5626593 L43.3907802,26.0761525 C43.2662039,27.2532405 43.0369,28.3990815 42.7123616,29.5041826 L46.3079957,31.5488642 C46.550525,31.6867801 46.664569,31.9979125 46.5575568,32.2562628 L45.7886608,34.1125419 C45.6839602,34.3653115 45.3831051,34.5108327 45.1119881,34.436282 L41.1222876,33.3392093 C40.5607228,34.3665886 39.909384,35.3378764 39.1788185,36.2425255 L41.7210754,39.5111415 C41.8923651,39.7313711 41.8786628,40.0624627 41.68093,40.2601955 L40.2601955,41.68093 C40.0667341,41.8743914 39.7330916,41.8937032 39.5111415,41.7210754 L36.2425255,39.1788185 C35.3378764,39.909384 34.3665886,40.5607228 33.3392093,41.1222876 L34.436282,45.1119881 C34.5102548,45.3810035 34.3708923,45.6816486 34.1125419,45.7886608 L32.2562628,46.5575568 C32.0034933,46.6622573 31.6878575,46.5524197 31.5488642,46.3079957 L29.5041826,42.7123616 C28.3990815,43.0369 27.2532405,43.2662039 26.0761525,43.3907802 L25.5626593,47.4987259 C25.5280535,47.7755719 25.2842474,48 25.004611,48 L22.995389,48 C22.7217932,48 22.4722168,47.7777346 22.4373407,47.4987259 L21.9238475,43.3907802 C20.7467595,43.2662039 19.6009185,43.0369 18.4958174,42.7123616 L16.4511358,46.3079957 C16.3132199,46.550525 16.0020875,46.664569 15.7437372,46.5575568 L13.8874581,45.7886608 C13.6346885,45.6839602 13.4891673,45.3831051 13.563718,45.1119881 L14.6607907,41.1222876 C13.6334114,40.5607228 12.6621236,39.909384 11.7574745,39.1788185 L8.48885854,41.7210754 C8.26862885,41.8923651 7.9375373,41.8786628 7.73980451,41.68093 L6.31906999,40.2601955 C6.12560856,40.0667341 6.10629676,39.7330916 6.27892461,39.5111415 L8.8211815,36.2425255 C8.09061604,35.3378764 7.43927722,34.3665886 6.87771242,33.3392093 L2.88801192,34.436282 C2.61899647,34.5102548 2.31835142,34.3708923 2.21133921,34.1125419 L1.44244323,32.2562628 C1.33774266,32.0034933 1.44758033,31.6878575 1.6920043,31.5488642 L5.28763841,29.5041826 C4.9631,28.3990815 4.73379612,27.2532405 4.60921975,26.0761525 L0.501274109,25.5626593 C0.224428063,25.5280535 -4.26325641e-14,25.2842474 -4.26325641e-14,25.004611 L-4.26325641e-14,22.995389 C-4.26325641e-14,22.7217932 0.222265363,22.4722168 0.501274109,22.4373407 L4.60921975,21.9238475 C4.73379612,20.7467595 4.9631,19.6009185 5.28763841,18.4958174 L1.6920043,16.4511358 C1.44947495,16.3132199 1.33543102,16.0020875 1.44244323,15.7437372 L2.21133921,13.8874581 C2.31603978,13.6346885 2.61689495,13.4891673 2.88801192,13.563718 L6.87771242,14.6607907 C7.43927722,13.6334114 8.09061604,12.6621236 8.8211815,11.7574745 L6.27892461,8.48885854 C6.10763486,8.26862885 6.12133721,7.9375373 6.31906999,7.73980451 L7.73980451,6.31906999 C7.93326595,6.12560856 8.26690844,6.10629676 8.48885854,6.27892461 L11.7574745,8.8211815 C12.6621236,8.09061604 13.6334114,7.43927722 14.6607907,6.87771242 L13.563718,2.88801192 C13.4897452,2.61899647 13.6291077,2.31835142 13.8874581,2.21133921 L15.7437372,1.44244323 C15.9965067,1.33774266 16.3121425,1.44758033 16.4511358,1.6920043 L18.4958174,5.28763841 C19.6009185,4.9631 20.7467595,4.73379612 21.9238475,4.60921975 L22.4373407,0.501274109 C22.4719465,0.224428063 22.7157526,5.40012479e-13 22.995389,5.40012479e-13 L25.004611,5.40012479e-13 C25.2782068,5.40012479e-13 25.5277832,0.222265363 25.5626593,0.501274109 L26.0761525,4.60921975 C27.2532405,4.73379612 28.3990815,4.9631 29.5041826,5.28763841 L31.5488642,1.6920043 C31.6867801,1.44947495 31.9979125,1.33543102 32.2562628,1.44244323 L34.1125419,2.21133921 C34.3653115,2.31603978 34.5108327,2.61689495 34.436282,2.88801192 L33.3392093,6.87771242 C34.3665886,7.43927722 35.3378764,8.09061604 36.2425255,8.8211815 Z M8.99959801,24 C8.99959801,32.283972 15.716028,39.000402 24,39.000402 C32.283972,39.000402 39.000402,32.283972 39.000402,24 C39.000402,15.716028 32.283972,8.99959801 24,8.99959801 C15.716028,8.99959801 8.99959801,15.716028 8.99959801,24 Z"/>
    <path fill="#BFC3C7" d="M24,19.5 C26.485125,19.5 28.5,21.514875 28.5,24 C28.5,26.485125 26.485125,28.5 24,28.5 C21.514875,28.5 19.5,26.485125 19.5,24 C19.5,21.514875 21.514875,19.5 24,19.5 Z M24,25.5 C24.8284271,25.5 25.5,24.8284271 25.5,24 C25.5,23.1715729 24.8284271,22.5 24,22.5 C23.1715729,22.5 22.5,23.1715729 22.5,24 C22.5,24.8284271 23.1715729,25.5 24,25.5 Z"/>
    <g fill="#BFC3C7" fill-rule="nonzero" transform="rotate(30 -2.892 34.794)">
      <polygon points="13.294 15.143 12.459 28.095 15.453 28.288 16.288 15.336"/>
      <polygon points="18.35 11.473 29.404 3.677 27.675 1.225 16.621 9.021" transform="rotate(1 23.013 6.349)"/>
      <polygon points="13.027 8.9 1.831 1.508 .178 4.011 11.374 11.404"/>
    </g>
  </g>
</svg>

<svg xmlns="http://www.w3.org/2000/svg" width="48" height="48"><g fill="none" fill-rule="evenodd"><path fill="#C0C3C7" d="M36.243 8.821 39.51 6.28a.577.577 0 0 1 .75.04l1.42 1.42a.58.58 0 0 1 .04.75l-2.542 3.268c.73.905 1.382 1.876 1.943 2.904l3.99-1.097a.577.577 0 0 1 .677.323l.769 1.857a.58.58 0 0 1-.25.707l-3.596 2.045a19.41 19.41 0 0 1 .679 3.428l4.108.513a.577.577 0 0 1 .501.558v2.01a.58.58 0 0 1-.501.558l-4.108.513a19.41 19.41 0 0 1-.679 3.428l3.596 2.045a.577.577 0 0 1 .25.707l-.77 1.857a.58.58 0 0 1-.676.323l-3.99-1.097a19.534 19.534 0 0 1-1.943 2.904l2.542 3.268a.577.577 0 0 1-.04.75l-1.42 1.42a.58.58 0 0 1-.75.04l-3.268-2.542a19.534 19.534 0 0 1-2.904 1.943l1.097 3.99a.577.577 0 0 1-.323.677l-1.857.769a.58.58 0 0 1-.707-.25l-2.045-3.596a19.41 19.41 0 0 1-3.428.679l-.513 4.108a.577.577 0 0 1-.558.501h-2.01a.58.58 0 0 1-.558-.501l-.513-4.108a19.41 19.41 0 0 1-3.428-.679l-2.045 3.596a.577.577 0 0 1-.707.25l-1.857-.77a.58.58 0 0 1-.323-.676l1.097-3.99a19.534 19.534 0 0 1-2.904-1.943L8.49 41.72a.577.577 0 0 1-.75-.04l-1.42-1.42a.58.58 0 0 1-.04-.75l2.542-3.268a19.534 19.534 0 0 1-1.943-2.904l-3.99 1.097a.577.577 0 0 1-.677-.323l-.769-1.857a.58.58 0 0 1 .25-.707l3.596-2.045a19.41 19.41 0 0 1-.679-3.428l-4.108-.513A.577.577 0 0 1 0 25.005v-2.01a.58.58 0 0 1 .501-.558l4.108-.513a19.41 19.41 0 0 1 .679-3.428L1.692 16.45a.577.577 0 0 1-.25-.707l.77-1.857a.58.58 0 0 1 .676-.323l3.99 1.097a19.534 19.534 0 0 1 1.943-2.904L6.28 8.49a.577.577 0 0 1 .04-.75l1.42-1.42a.58.58 0 0 1 .75-.04l3.268 2.542a19.534 19.534 0 0 1 2.904-1.943l-1.097-3.99a.577.577 0 0 1 .323-.677l1.857-.769a.58.58 0 0 1 .707.25l2.045 3.596a19.41 19.41 0 0 1 3.428-.679l.513-4.108A.577.577 0 0 1 22.995 0h2.01a.58.58 0 0 1 .558.501l.513 4.108a19.41 19.41 0 0 1 3.428.679l2.045-3.596a.577.577 0 0 1 .707-.25l1.857.77a.58.58 0 0 1 .323.676l-1.097 3.99a19.534 19.534 0 0 1 2.904 1.943zM9 24c0 8.284 6.716 15 15 15 8.284 0 15-6.716 15-15 0-8.284-6.716-15-15-15-8.284 0-15 6.716-15 15z"/><path fill="#BFC3C7" d="M24 19.5a4.5 4.5 0 1 1 0 9 4.5 4.5 0 0 1 0-9zm0 6a1.5 1.5 0 1 0 0-3 1.5 1.5 0 0 0 0 3z"/><g fill="#BFC3C7" fill-rule="nonzero"><path d="m20.951 25.869-7.2 10.799 2.497 1.664 7.2-10.8zM27.129 25.103l13.49-.99-.219-2.992-13.49.99zM23.841 20.329l-6-12-2.683 1.341 6 12z"/></g></g></svg>
